!!!COM: Bach, Johann Sebastian
!!!OPR: Inventio
!!!OTL: Inventio 13
!!!XEN: Two-part Inventions [for keyboard]
!!!ONM: No. 13
!!!ONB: In A minor.
!!!SCT: BWV 784
!!!YEC: Copyright 1994, David Huron
!!!YEM: Rights to all derivative electronic formats reserved.
!! Performance duration: 1:18; performance tempo: 76.9 quarter-notes per minute.
!! (Andras Schiff, piano, "Two-Part Inventions BWV 772a-786; Three-part
!! Inventions BWV 787-801" Decca 411 974-2)
**kern	**kern
*staff2	*staff1
*clefF4	*clefG2
*k[]	*k[]
*a:	*a:
*M4/4	*M4/4
*MM76.9	*MM76.9
=1-	=1-
8AA	16r
.	16e
4A	16a
.	16cc
.	16b
.	16e
8G#	16b
.	16dd
16A	8cc
16E	.
16A	8ee
16c	.
16B	8g#
16E	.
16B	8ee
16d	.
=2	=2
8c	16a
.	16e
8A	16a
.	16cc
8G#	16b
.	16e
8E	16b
.	16dd
16A	8cc
16E	.
16A	8a
16c	.
16B	4r
16E	.
16B	.
16d	.
=3	=3
8c	16r
.	16ee
8A	16cc
.	16ee
8c	16a
.	16cc
8A	16e
.	16g
16d	8f
16A	.
16F	8a
16A	.
16D	8dd
16F	.
16AA	[8ff
16C	.
=4	=4
8BB	16ff]
.	16dd
8D	16b
.	16dd
8G	16g
.	16b
[8B	16d
.	16f
16B]	8e
16G	.
16E	8g
16G	.
16C	8cc
16E	.
16GG	[8ee
16BB	.
=5	=5
8AA	16ee]
.	16cc
8C	16a
.	16cc
16D	8f
16F	.
16BB	[8dd
16D	.
8GG	16dd]
.	16b
8BB	16g
.	16b
16C	8e
16E	.
16AA	[8cc
16C	.
=6	=6
8FF	16cc]
.	16a
8DD	16f
.	16a
16GG	8d
16G	.
16F	8b
16G	.
16C	8cc
16G	.
16c	8r
16e	.
16d	4r
16G	.
16d	.
16f	.
=7	=7
8e	16r
.	16g
8c	16cc
.	16ee
8B	16dd
.	16g
8G	16dd
.	16ff
16c	8ee
16G	.
16c	8gg
16e	.
16d	8b
16G	.
16d	8gg
16f	.
=8	=8
8e	16cc
.	16g
8c	16cc
.	16ee
4r	16dd
.	16g
.	16dd
.	16ff
16r	8ee
16g	.
16e	8cc
16g	.
16c	8gg
16e	.
16G	8ee
16B	.
=9	=9
8A	16ccc
.	16aa
8c	16ee
.	16aa
8e	16cc
.	16ee
8g	16a
.	16cc
16f#	8dd
16a	.
16d	8ff#
16f#	.
16A	8aa
16d	.
16F#	8ccc
16A	.
=10	=10
8G	16bb
.	16gg
8B	16dd
.	16gg
8d	16b
.	16dd
8f#	16g
.	16b
16e	8cc
16g	.
16c	8ee
16e	.
16G	8gg
16c	.
16E	8bb
16G	.
=11	=11
8F#	16aa
.	16ff#
8A	16dd#
.	16ff#
8B	16b
.	16dd#
8d#	16f#
.	16a
16r	8g
16e	.
16c	[8gg
16e	.
16A	16gg]
16c	16ee
16e	16cc
16g	16ee
=12	=12
16f#	8a
16d	.
16B	[8ff#
16d	.
16G	16ff#]
16B	16dd
16d	16b
16f#	16dd
16e	8g
16c	.
16A	[8ee
16c	.
16F#	16ee]
16A	16cc
[8c	16a
.	16cc
=13	=13
16c]	16f#
16B	16gg
16c	16ff#
16A	16ee
8B	16dd#
.	16ff#
8BB	16b
.	16dd#
16E	8ee
16e	.
16B	8r
16G	.
16E	4r
16BB	.
16GG	.
16BB	.
=14	=14
8EE	16r
.	16gg
8E	16bb-
.	16gg
8G	16ee
.	16gg
8B-	16cc#
.	16ee
8C#	16gg
.	16ee
8r	16cc#
.	16ee
16r	16a
16g	16r
16f	8r
16e	.
=15	=15
8d	16r
.	16ff
8D	16aa-
.	16ff
8F	16dd
.	16ff
8A-	16b
.	16dd
8BB	16ff
.	16dd
8r	16b
.	16dd
16r	16g
16f	16r
16e	8r
16d	.
=16	=16
8c	16r
.	16ee
8C	16gg
.	16ee
8E	16cc
.	16ee
8F#	16a
.	16cc
8AA	16dd#
.	16cc
8r	16a
.	16cc
16r	16f#
16e	16r
16d#	8r
16c#	.
=17	=17
8B	16r
.	16ddn
8BB	16ff
.	16dd
8D	16b
.	16dd
8F	16g#
.	16b
8GG#	16dd
.	16b
8r	16g#
.	16b
16r	16e
16d	16r
16c	8r
16B	.
=18	=18
8c	16r
.	16e
8A	16a
.	16cc
8G#	16b
.	16e
8E	16b
.	16dd
16A	8cc
16E	.
16A	8a
16c	.
16B	8g#
16E	.
16B	8e
16d	.
=19	=19
16c	16a
16e	16cc
16a	16ee
16e	16cc
16c	16a
16e	16cc
16A	16f#
16c	16a
16F#	16cc
16A	16a
16c	16f#
16A	16a
16F#	16d#
16A	16cc
16D#	16b
16F#	16a
=20	=20
8E	16g#
.	16b
8G#	16dd
.	16b
8B	16g#
.	16b
8G#	16d
.	16fn
8E	16g#
.	16f
8BB	16d
.	16f
8GG#	16B
.	16f
8EE	16e
.	16d
=21	=21
8AA	16c
.	16e
8C	16a
.	16e
8E	16c
.	16e
8C	16A
.	16c
8AA	16d#
.	16c
8C	16A
.	16c
8DD#	16F#
.	16c
8r	16B
.	16A
=22	=22
16r	8G#
16B	.
16G#	8b
16E	.
16D	8g#
16B	.
16G#	8e
16D	.
8C	16r
.	16e
8E	16a
.	16cc
8GG#	16b
.	16e
8E	16b
.	16dd
=23	=23
8AA	16cc
.	16a
8F#	16cc
.	16ee
8BB	16dd
.	16b
8G#	16dd
.	16ff
8C	16ee
.	16cc
8A	16ee
.	16gg
8D	16ff
.	16ee
8B-	16dd
.	16cc
=24	=24
8G#	16b
.	16cc
8Fn	16dd
.	16ee
8D	16ff
.	16dd
8BB	16gg#
.	16dd
8GG#	16bb
.	16dd
8AA	16cc
.	16aa
8DD	16ff
.	16dd
8EE	16b
.	16dd
=25	=25
8FF	16g#
.	16b
8DD#	16cc
.	16a
8EE	16e
.	16a
8E	16b
.	16g#
2AA;	16a
.	16e
.	16c
.	16e
.	4A;
==|!	==|!
*-	*-
!!!CDT: 1685/3//-1750/7/28
!!!OCY: Deutschland
!!!AGN: polyphony
!!!AST: baroque
!!!AMT: simple quadruple
!!!SCA: Bach-Werke-Verzeichnis
!!!YOR: Bach Gesellschaft
!!!AIN: cemb; clavi
!!!EEV: 1.0
!!!RDT: 1986 November
!!!YER: 1995 May 22
!!!YEN: Canada
!!!EFL: 13/15
!!!EED: David Huron
